www/assets/icons/notification_add.svg

<svg xmlns="http://www.w3.org/2000/svg" width="24" height="24" viewBox="0 0 24 24" fill='currentColor'><path d="M8 20h4c0 1.1-.9 2-2 2s-2-.9-2-2m4-11c0 2.61 1.67 4.83 4 5.66V17h2v2H2v-2h2v-7c0-2.79 1.91-5.14 4.5-5.8v-.7c0-.83.67-1.5 1.5-1.5s1.5.67 1.5 1.5v.7c.71.18 1.36.49 1.95.9A5.9 5.9 0 0 0 12 9m10-1h-3V5h-2v3h-3v2h3v3h2v-3h3z"/></svg>

<svg width="24" height="24" viewBox="0 0 24 24" xmlns="http://www.w3.org/2000/svg" fill='currentColor'><path d="M8 20H12C12 21.1 11.1 22 10 22C8.9 22 8 21.1 8 20ZM12 9C12 11.61 13.67 13.83 16 14.66V17H18V19H2V17H4V10C4 7.21 5.91 4.86 8.5 4.2V3.5C8.5 2.67 9.17 2 10 2C10.83 2 11.5 2.67 11.5 3.5V4.2C12.21 4.38 12.86 4.69 13.45 5.1C12.54 6.14 12 7.51 12 9ZM22 8H19V5H17V8H14V10H17V13H19V10H22V8Z"/></svg>
